X:1
T:Title
%%score { 1 | ( 2 3 ) }
L:1/8
M:4/4
K:G
V:1 treble nm="Grand Piano"
V:2 treble 
V:3 treble 
V:1
 z4 z2[Q:1/4=100] B>A | G2 G2 G2 D>D | E2 [EG]2 [EG]2 [DG]>[DG] | [DFA]2 [^CGA]2 [DFA]2 [DF]>[DF] | %4
[M:9/8] [DG]2 [DFA]- [DFA] B2- Bd>c |[M:4/4] B2 B2 B2 G>G | [CEA]2 [DEB]2 [Ec]2 [DFB]>[DFA] | %7
 [DGd]2 [Ad]2 [Gd]2 [^CG]>[CGA] |[M:7/8] [DGB]2 [CDA]2 [G,B,DG]3 |[M:1/4] B>c | %10
[M:4/4] d2 d2 d2 e>d | B2 B2 B2 B2 | [EG]2 [EG]2 [Ec]2 [Ge]2 | e2 d2 d2 B>c | d2 d2 d2 e>d | %15
 B2 B2 B2 B>B | [EGA]2 [Ge]2 [Gd]3 [^CG] |[M:7/8] [DGB]2 [CDA]2 [B,DG]3 |] %18
V:2
 z4 z2 [G,DG]>[G,CD] | [G,B,D]2 [G,CE]2 [G,B,D]2[K:bass] [G,B,]>[G,B,] | %2
 [C,G,C]2 [C,C]2 [C,C]2 B,,>B,, | D,2 E,2 D,2 C,>C, | %4
[M:9/8] B,,2 D,- D,[K:treble] [G,DG]2- [G,DG][G,B,G]>[G,EG] | %5
[M:4/4] [G,DG]2 [G,DG]2 [G,DG]2[K:bass] [G,B,]>[G,B,] | C,2 B,,2 A,,2 D,>C, | %7
 B,,2 [D,C]2 [G,B,]2 E,>E, |[M:7/8] D,2 D,2 G,,3 |[M:1/4][K:treble] [G,DG]>[G,A,G] |[M:4/4] z4 G4 | %11
 [G,DG]2 [G,DG]2 [G,DG]2 [G,D=F]2 | [C,C]2 [C,C]2 [C,G,]2 [C,C]2 | %13
 [G,CG]2 [G,B,G]2 [G,B,G]2 [G,DG]>[G,A,G] | [G,B,G]2 [G,B,G]2 [G,B,G]2 [G,CG]>[G,B,G] | %15
 [G,DG]2 [G,DG]2 [G,DG]2 [G,DG]>[G,DG] | C,2 [^C,_B,]2 [D,=B,]3 E, |[M:7/8] D,2 D,2 G,,3 |] %18
V:3
 x8 | x6[K:bass] x2 | x8 | x8 |[M:9/8] x4[K:treble] x5 |[M:4/4] x6[K:bass] x2 | x8 | x8 | %8
[M:7/8] x7 |[M:1/4][K:treble] x2 |[M:4/4] [G,B,G]2 [G,B,G]2 [G,B,]2 [G,C]>[G,B,G] | x8 | x8 | x8 | %14
 x8 | x8 | x8 |[M:7/8] x7 |] %18

